X:1
T:Amen Alleluja
T:Amen Alleluja in G minor
T:G. F. Handel
C:G. F. Handel
%%score 1 { ( 2 3 ) | 4 }
L:1/8
Q:1/4=71
M:4/4
K:Bb
V:1 treble nm="Voice"
V:2 treble nm="Piano"
V:3 treble 
V:4 bass 
V:1
|:"^Adagio" G3 A B/c/ d2 c | BA/G/ ^F>G G2 z2 | B3 c (d/e/ f2) e | (dc/B/ A>B) B2 z2 | %4
w: A- men a- * * men|a- * * * men- *|a- men a- * * men|a- * * * men- *|
 (A/G/^F G/A/B A/B/c B/c/d | c/B/e/d/ c/B/A/G/ G) ^F z2 | d3 F E/E/G (c2- | cd/e/) =B>c c2 z2 | %8
w: a- * * * * * * * * * * *|* * * * * * * * * men|al- le- lu- ja, al- le-|* * * * lu- ja|
 G3 A (B/A/) G/ G/ (d2- | d2 gB c3) d | d8 :: D3 =E (F/G/) A2 =e | %12
w: al- le- lu- * ja, al- le-|* * * * lu-|ja.|al- le- lu- * ja al-|
 (f=e/d/ ^c>)d d>d (=c/B/) (A/G/) | F F2 G (A/B/) c2 f/=e/ | (d/c/B/A/ G3/2) F/ F2 z2 | %15
w: le- * * * lu- ja, al- le- * lu- *|ja al- le- lu- * ja, al- *|le- * * * * lu- ja,|
 ^F3 F (G/A/)B z2 | =B3 B (c/d/)e z d | ^c3 c d2 z d | g3 (e/d/) ((c2 c/)e/d/c/ | %19
w: al- le- lu- * ja,|al- le- lu- * ja al-|le- lu- ja, al-|le- lu- * ja, a- * * *|
 f>e d/c/B/A/ (B2 B/)d/c/B/ | e>d c/B/A/G/ A2- A/c/B/A/ | d>c B/A/G/^F/ G2- G/B/A/G/ | %22
w: |||
[Q:1/4=71]"^Adagio" c) c c c c4- | c8 | B4 A3 G | G8 |] %26
w: * al- le- lu- ja||al- le- lu-|ja.|
V:2
|: B,ED[C^FA] [GB]/A/B/G/ G/D/=E/F/ | B/d/c/B/ A2 G2 A2 | FGFE F2 c/F/G/A/ | %3
 d/f/e/d/ A/G/F/E/ D/E/D/C/ B,/C/D/F/ | A^FGB AcBd | c/C/E/G/ [ce]/[Bd]/[Ac]/[GB]/ [GB][^FA] z2 | %6
 D/E/D/C/ =B,D- D2 C2- | [C_A]2 G/A/G/F/ EAG=B | GED^F B/D/G/B/ d2 | GG,B,D GBAG |!f! [^Fd]8 :: %11
!p! =FBAG [FAd]2 A^c | f/a/g/f/ =e2 d2 ^c2 | z CD[=EG] A/C/F/A/ c/F/f/=e/ | %14
 [Bd]/[Ac]/[GB]/[FA]/ [=EG]>F F2 z2 |!p! [A,D^F]4 [G,DG]4 | [DG=B]4"_cresc." [Gc]3 [Gd] | %17
 [=EA^c]4!<(! [Ad]4!<)! |!f! d/G/B/d/ g/G/c/B/ c/F/A/c/ C/c/B/A/ | %19
 A/f/d/A/ A/D/G/F/ G/B,/D/G/ D/B/A/G/ | G/e/c/G/ G/C/F/E/ F/A,/C/F/ C/A/G/F/ | %21
 F/d/B/F/ F/B,/E/D/ E/G,/B,/E/ B,/G/F/E/ | [CE^F]2 z2 z cA^F |!<(! D2 [^FAd]2!<)! [Ad^f]4 | %24
 [B,DG]4 G2 ^F2 |!ff! [G,B,DG]8 |] %26
V:3
|: G3 z D2 x2 | GA/G/ ^FD/C/ B,/C/D/E/ =F/G/A/c/ | B3 [Ac] [Bd]/c/d/B/ ce | Bc/B/ c>B B2 F2 | %4
 E D3- D^F G2- | G2 x6 | =F4 E3 G | x2 =B,2 C3 F | c2 dc G3 A | d4 c4 | x8 :: d3 ^c x2 =e>g | %12
 d=e/d/ ^cA/G/ F/D/=E/F/ G/C/E/G/ | F3 x F4 | x8 | x8 | x4 C E2 x | x4 D=E/^F/ G/A/B/^c/ | x8 | %19
 x8 | x8 | x8 | x8 | x8 | x4 [A,D]4 | x8 |] %26
V:4
|: G,C,B,,A,, G,,G,^F,D, | G,C,D,D,, G,,G,F,E, | D,E,D,C, B,,B,A,F, | B,E,F,F,, B,,C,D,B,, | %4
 C,D,B,,G, ^F,A,G,B, | E,G,E,C, D,D,,D,C, | =B,,A,,G,,B,, C,3 E, | F,D,G,G,, C,F,E,D, | %8
 E,C,B,,A,, G,,2 z F, | E,4 E,,4 | [D,,D,]8 :: D,G,F,=E, D,D^CA, | D,G,A,A,, D,F,=E,C, | %13
 D,A,,B,,G,, F,,F,A,F, | B,G,CC, F,G,F,E, | %15
 [D,,D,][A,,,A,,][D,,D,][C,,C,] [B,,,B,,][G,,,G,,][D,,D,][G,,G,] | %16
 [F,,E,][D,,C,][G,,C][F,,B,] [E,,E,][C,,C,][C,C][B,,B,] | %17
 [A,,A,][A,,,A,,][A,,A,][G,,G,] [^F,,^F,][D,,D,][D,D][C,C] | %18
 [B,,B,][A,,A,][B,,B,][G,,G,] [A,,A,][G,,G,][A,,A,][F,,F,] | %19
 [D,,D,][E,,E,][F,,F,][D,,D,] [G,,G,][A,,A,][B,,B,][G,,G,] | %20
 [C,,C,][D,,D,][E,,E,][C,,C,] [F,,F,][G,,G,][A,,A,][F,,F,] | %21
 [B,,,B,,][C,,C,][D,,D,][B,,,B,,] [E,,E,][F,,F,][G,,G,][E,,E,] | [A,,,A,,]2 z2 z ECA, | %23
 ^F,[C,C][A,,A,][F,,F,] [D,,D,]4 | [G,,,G,,]4 [D,,D,]2 [D,,,D,,]2 | [G,,,G,,]8 |] %26

